Sources/FrostedUI/Resources/Icons.xcassets/linkSlash16.imageset/link-slash-16.svg

<svg width="16" height="16" viewBox="0 0 16 16" fill="none" xmlns="http://www.w3.org/2000/svg" data-fui-icon="true">
  <path
    fill-rule="evenodd"
    clip-rule="evenodd"
    d="M8.38236 1.30698C9.21921 0.470134 10.3542 -2.58657e-08 11.5377 0C14.0022 5.38626e-08 16 1.99784 16 4.46231C16 5.64579 15.5299 6.7808 14.693 7.61764L12.9231 9.38756C12.6302 9.68046 12.1553 9.68046 11.8624 9.38756C11.5695 9.09467 11.5695 8.6198 11.8624 8.3269L13.6324 6.55698C14.1879 6.00144 14.5 5.24796 14.5 4.46231C14.5 2.82627 13.1737 1.5 11.5377 1.5C10.752 1.5 9.99856 1.8121 9.44302 2.36764L7.6731 4.13756C7.3802 4.43046 6.90533 4.43046 6.61244 4.13756C6.31954 3.84467 6.31954 3.3698 6.61244 3.0769L8.38236 1.30698ZM4.13756 6.61244C4.43046 6.90533 4.43046 7.3802 4.13756 7.6731L2.36764 9.44302C1.8121 9.99856 1.5 10.752 1.5 11.5377C1.5 13.1737 2.82627 14.5 4.46231 14.5C5.24796 14.5 6.00144 14.1879 6.55698 13.6324L8.3269 11.8624C8.6198 11.5695 9.09467 11.5695 9.38756 11.8624C9.68046 12.1553 9.68046 12.6302 9.38756 12.9231L7.61764 14.693C6.7808 15.5299 5.64579 16 4.46231 16C1.99784 16 -5.38626e-08 14.0022 0 11.5377C2.58657e-08 10.3542 0.470135 9.2192 1.30698 8.38236L3.0769 6.61244C3.3698 6.31954 3.84467 6.31954 4.13756 6.61244Z"
    fill="currentColor"
  />
  <path
    fill-rule="evenodd"
    clip-rule="evenodd"
    d="M6.7626 9.23746C7.05549 9.53036 7.05547 10.0052 6.76257 10.2981L6.17674 10.8839C5.88384 11.1768 5.40897 11.1768 5.11608 10.8839 4.8232 10.591 4.82321 10.1161 5.11612 9.82321L5.70194 9.23742C5.99485 8.94454 6.46972 8.94455 6.7626 9.23746zM10.8839 5.11612C11.1768 5.40902 11.1768 5.88389 10.8839 6.17678L10.2981 6.76257C10.0052 7.05545 9.53031 7.05544 9.23742 6.76253 8.94454 6.46963 8.94455 5.99476 9.23746 5.70187L9.82328 5.11608C10.1162 4.8232 10.5911 4.82321 10.8839 5.11612zM2.182 2.18197C2.47489 1.88908 2.94977 1.88908 3.24266 2.18197L13.818 12.7573C14.1109 13.0502 14.1109 13.5251 13.818 13.818 13.5251 14.1109 13.0503 14.1109 12.7574 13.818L2.182 3.24263C1.88911 2.94974 1.88911 2.47487 2.182 2.18197z"
    fill="currentColor"
  />
</svg>

<svg xmlns="http://www.w3.org/2000/svg" width="16" height="16" fill="none" data-fui-icon="true" viewBox="0 0 16 16"><path fill="currentColor" fill-rule="evenodd" d="M8.382 1.307a4.462 4.462 0 1 1 6.311 6.31l-1.77 1.77a.75.75 0 0 1-1.06-1.06l1.77-1.77a2.962 2.962 0 0 0-4.19-4.19l-1.77 1.77a.75.75 0 1 1-1.06-1.06zM4.138 6.612a.75.75 0 0 1 0 1.061l-1.77 1.77a2.962 2.962 0 1 0 4.189 4.19l1.77-1.77a.75.75 0 1 1 1.06 1.06l-1.77 1.77a4.462 4.462 0 1 1-6.31-6.31l1.77-1.77a.75.75 0 0 1 1.06 0" clip-rule="evenodd"/><path fill="currentColor" fill-rule="evenodd" d="M6.763 9.237a.75.75 0 0 1 0 1.061l-.586.586a.75.75 0 1 1-1.06-1.06l.585-.587a.75.75 0 0 1 1.06 0m4.12-4.12a.75.75 0 0 1 0 1.06l-.585.586a.75.75 0 0 1-1.06-1.061l.585-.586a.75.75 0 0 1 1.06 0M2.183 2.181a.75.75 0 0 1 1.06 0l10.576 10.575a.75.75 0 0 1-1.06 1.061L2.181 3.243a.75.75 0 0 1 0-1.061" clip-rule="evenodd"/></svg>
